;FLAVOR:Marlin
;TIME:687
;Filament used: 0.680607m
;Layer height: 0.32
;MINX:111.749
;MINY:99.37
;MINZ:0.36
;MAXX:138.251
;MAXY:150.629
;MAXZ:3.52
;TARGET_MACHINE.NAME:VORON2 250
;Generated with Cura_SteamEngine 5.6.0
M140 S60
M105
M190 S60
M104 S220
M105
M109 S220
M82 ;absolute extrusion mode
START_PRINT
G92 E0
G92 E0
G1 F600 E-1
;LAYER_COUNT:9
;LAYER:0
M107
M204 S2000
G1 F600 Z0.96
G0 F3600 X113.129 Y101.082 Z0.96
;TYPE:SKIRT
G1 F600 Z0.36
G1 F600 E0
G1 F1200 X113.386 Y100.82 E0.02417
G1 X113.817 Y100.452 E0.06149
G1 X114.074 Y100.269 E0.08227
G1 X114.532 Y99.997 E0.11735
G1 X114.881 Y99.827 E0.14291
G1 X115.42 Y99.622 E0.18089
G1 X115.694 Y99.545 E0.19963
G1 X116.233 Y99.442 E0.23577
G1 X116.667 Y99.397 E0.26451
G1 X116.952 Y99.38 E0.28331
G1 X117.636 Y99.37 E0.32836
G1 X132.364 Y99.37 E1.29827
G1 X133.052 Y99.38 E1.34358
G1 X133.574 Y99.415 E1.37804
G1 X134.107 Y99.503 E1.41361
G1 X134.51 Y99.605 E1.44099
G1 X135.071 Y99.804 E1.48019
G1 X135.337 Y99.927 E1.49949
G1 X135.786 Y100.18 E1.53343
G1 X136.099 Y100.391 E1.55829
G1 X136.556 Y100.764 E1.59714
G1 X136.785 Y100.989 E1.61828
G1 X137.134 Y101.395 E1.65354
G1 X137.335 Y101.672 E1.67607
G1 X137.624 Y102.153 E1.71303
G1 X137.794 Y102.502 E1.73859
G1 X138.006 Y103.066 E1.77827
G1 X138.091 Y103.378 E1.79957
G1 X138.186 Y103.884 E1.83347
G1 X138.219 Y104.195 E1.85407
G1 X138.237 Y104.483 E1.87307
G1 X138.251 Y105.348 E1.93004
G1 X138.251 Y144.74 E4.52421
G1 X138.242 Y145.395 E4.56735
G1 X138.203 Y145.974 E4.60556
G1 X138.113 Y146.524 E4.64227
G1 X138.024 Y146.872 E4.66592
G1 X137.833 Y147.413 E4.7037
G1 X137.7 Y147.704 E4.72477
G1 X137.442 Y148.164 E4.75951
G1 X137.242 Y148.461 E4.78309
G1 X136.874 Y148.912 E4.82142
G1 X136.617 Y149.175 E4.84564
G1 X136.175 Y149.553 E4.88394
G1 X135.918 Y149.735 E4.90468
G1 X135.467 Y150.002 E4.93919
G1 X135.118 Y150.172 E4.96476
G1 X134.579 Y150.377 E5.00273
G1 X134.305 Y150.454 E5.02148
G1 X133.766 Y150.557 E5.05761
G1 X133.332 Y150.602 E5.08635
G1 X133.047 Y150.619 E5.10515
G1 X132.363 Y150.629 E5.1502
G1 X117.635 Y150.629 E6.12011
G1 X116.947 Y150.619 E6.16543
G1 X116.425 Y150.584 E6.19988
G1 X115.892 Y150.496 E6.23546
G1 X115.489 Y150.394 E6.26283
G1 X114.927 Y150.194 E6.30212
G1 X114.659 Y150.07 E6.32156
G1 X114.203 Y149.813 E6.35603
G1 X113.892 Y149.602 E6.38078
G1 X113.448 Y149.239 E6.41855
G1 X113.218 Y149.014 E6.43974
G1 X112.861 Y148.599 E6.47579
G1 X112.66 Y148.321 E6.49838
G1 X112.373 Y147.841 E6.53521
G1 X112.203 Y147.491 E6.56084
G1 X111.993 Y146.932 E6.60016
G1 X111.913 Y146.639 E6.62016
G1 X111.816 Y146.12 E6.65494
G1 X111.776 Y145.73 E6.68075
G1 X111.759 Y145.447 E6.69942
G1 X111.749 Y144.741 E6.74592
G1 X111.749 Y105.224 E9.34832
G1 X111.759 Y104.566 E9.39166
G1 X111.795 Y104.033 E9.42684
G1 X111.882 Y103.504 E9.46214
G1 X111.974 Y103.137 E9.48706
G1 X112.169 Y102.579 E9.52598
G1 X112.3 Y102.293 E9.5467
G1 X112.353 Y102.198 E9.55386
G0 F1080 X112.557 Y101.835
G0 X112.757 Y101.538
G0 X113.129 Y101.082
G1 F600 E8.55386
G1 F600 Z0.96
;MESH:mount-2020-tmc2209.stl
G0 F3600 X118.376 Y110.263 Z0.96
;TYPE:WALL-OUTER
G1 F600 Z0.36
G1 F600 E9.55386
G1 F1170.7 X118.482 Y110.263 E9.56037
G0 F3600 X116.956 Y110.258
G1 F1194 X116.782 Y110.014 E9.5784
G1 F1200 X116.786 Y104.595 E9.90283
G1 X116.864 Y104.483 E9.911
G1 X117.041 Y104.402 E9.92265
G1 X119.845 Y104.402 E10.09052
G1 X120.022 Y104.508 E10.10287
G1 X120.088 Y104.683 E10.11407
G1 X120.086 Y110.046 E10.43514
G1 X120.024 Y110.163 E10.44307
G1 X119.862 Y110.256 E10.45425
G1 F1185.2 X118.482 Y110.263 E10.53791
G1 F1179.4 X118.876 Y110.374 E10.56284
G1 F1191.1 X119.204 Y110.702 E10.59082
G1 F1197 X119.319 Y111.156 E10.61893
G1 F1200 X119.203 Y111.593 E10.646
G1 X118.867 Y111.922 E10.67415
G1 X118.435 Y112.038 E10.70093
G1 X117.993 Y111.923 E10.72827
G1 X117.569 Y111.505 E10.76392
G1 F1197 X117.567 Y110.791 E10.80677
G1 F1191.1 X117.979 Y110.374 E10.84213
G1 F1179.4 X118.376 Y110.263 E10.86724
G1 X116.956 Y110.258 E10.95374
G0 F3600 X116.782 Y110.014
G0 X116.785 Y105.313
G1 F600 E9.95374
G1 F600 Z0.96
G0 F3600 X125.318 Y125.792 Z0.96
;TYPE:WALL-INNER
G1 F600 Z0.36
G1 F600 E10.95374
G1 F1200 X125.114 Y125.897 E10.96748
G1 X124.931 Y125.935 E10.97867
G1 X122.06 Y125.933 E11.15055
G1 X121.903 Y125.895 E11.16022
G1 X121.73 Y125.792 E11.17227
G1 X121.599 Y125.633 E11.18461
G1 X121.478 Y125.394 E11.20065
G1 X121.474 Y125.062 E11.22052
G1 X120.98 Y125.185 E11.251
G1 X120.489 Y125.064 E11.28128
G1 X120.484 Y125.38 E11.3002
G1 X120.401 Y125.615 E11.31512
G1 X120.265 Y125.77 E11.32746
G1 X119.956 Y125.945 E11.34872
G1 X117.025 Y125.945 E11.5242
G1 X116.767 Y125.887 E11.54003
G1 X116.503 Y125.642 E11.56159
G1 F987.7 X116.303 Y125.385 E11.58528
G1 F843.6 X116.298 Y122.482 E11.83251
G1 F995.9 X116.703 Y121.933 E11.88172
G1 F1200 X116.967 Y121.844 E11.8984
G1 X117.241 Y121.837 E11.91481
G1 X117.173 Y121.704 E11.92375
G1 X117.167 Y121.183 E11.95495
G1 X117.212 Y120.953 E11.96898
G1 X117.296 Y120.75 E11.98213
G1 X117.382 Y120.598 E11.99259
G1 X117.734 Y120.25 E12.02222
G1 X117.867 Y120.149 E12.03222
G1 F1185.2 X118.221 Y120.05 E12.0545
G1 X117.842 Y119.94 E12.07842
G1 F1200 X117.688 Y119.874 E12.08845
G1 X117.503 Y119.703 E12.10353
G1 X117.248 Y119.272 E12.13351
G1 X117.167 Y119.049 E12.14772
G1 X117.169 Y118.46 E12.18298
G1 X117.243 Y118.302 E12.19343
G1 X116.967 Y118.3 E12.20995
G1 X116.752 Y118.237 E12.22336
G1 X116.503 Y117.999 E12.24399
G1 F987.7 X116.303 Y117.742 E12.26767
G1 F843.6 X116.298 Y114.838 E12.51499
G1 F995.9 X116.683 Y114.316 E12.56178
G1 F1200 X116.949 Y114.192 E12.57935
G1 X117.258 Y114.192 E12.59785
G1 X117.167 Y113.983 E12.61149
G1 X117.167 Y113.422 E12.64508
G1 X117.31 Y113.032 E12.66995
G1 X117.724 Y112.612 E12.70526
G1 X117.931 Y112.519 E12.71884
G1 F1209.1 X118.338 Y112.421 E12.74372
G1 X117.931 Y112.321 E12.76862
G1 F1200 X117.727 Y112.23 E12.78199
G1 X117.31 Y111.809 E12.81747
G1 X117.167 Y111.505 E12.83758
G1 X117.169 Y110.816 E12.87883
G1 X117.243 Y110.659 E12.88922
G1 X116.967 Y110.656 E12.90575
G1 X116.752 Y110.593 E12.91916
G1 X116.503 Y110.355 E12.93978
G1 F987.7 X116.303 Y110.098 E12.96347
G1 F845.1 X116.3 Y104.587 E13.43198
G1 X116.357 Y104.357 E13.45212
G1 F833.3 X116.519 Y104.116 E13.47715
G1 F827.6 X116.768 Y103.976 E13.50195
G1 F837.7 X117.037 Y103.919 E13.52553
G1 F848.1 X119.845 Y103.919 E13.76341
G1 F993.8 X120.403 Y104.34 E13.81394
G1 F1200 X120.488 Y104.683 E13.8351
G1 X120.489 Y110.015 E14.15431
G1 F1086 X120.462 Y110.399 E14.17978
G1 F912.5 X120.351 Y110.52 E14.19271
G1 F960 X120.097 Y110.603 E14.2127
G1 F1153.8 X119.914 Y110.65 E14.22447
G1 F1200 X119.605 Y110.658 E14.24297
G1 X119.717 Y111.072 E14.26865
G1 X119.706 Y111.251 E14.27939
G1 X119.603 Y111.643 E14.30365
G1 X119.448 Y111.913 E14.32229
G1 X119.129 Y112.232 E14.3493
G1 F1197 X118.926 Y112.323 E14.36265
G1 F1170.7 X118.586 Y112.421 E14.38436
G1 X118.926 Y112.519 E14.40608
G1 F1197 X119.132 Y112.611 E14.41962
G1 F1200 X119.452 Y112.933 E14.4468
G1 X119.603 Y113.198 E14.46506
G1 X119.721 Y113.64 E14.49245
G1 X119.695 Y113.85 E14.50511
G1 X119.604 Y114.191 E14.52624
G1 X120.013 Y114.2 E14.55074
G1 F1273.2 X120.404 Y114.536 E14.57982
G1 F1445.8 X120.443 Y114.874 E14.59673
G1 F1538.5 X120.438 Y117.755 E14.73127
G1 F1344.5 X120.17 Y118.189 E14.75852
G1 F1200 X119.912 Y118.294 E14.7752
G1 X119.605 Y118.302 E14.79358
G1 X119.718 Y118.719 E14.81945
G1 X119.695 Y118.945 E14.83305
G1 X119.586 Y119.354 E14.85839
G1 X119.503 Y119.503 E14.8686
G1 X119.147 Y119.853 E14.89849
G1 X118.924 Y119.965 E14.91343
G1 F1185.2 X118.533 Y120.071 E14.93799
G1 F1179.4 X118.702 Y120.074 E14.94828
G1 F1194 X118.916 Y120.114 E14.96138
G1 F1200 X119.125 Y120.25 E14.97631
G1 X119.505 Y120.627 E15.00836
G1 X119.589 Y120.784 E15.01902
G1 X119.715 Y121.258 E15.04838
G1 X119.694 Y121.492 E15.06244
G1 X119.605 Y121.835 E15.08366
G1 X119.927 Y121.842 E15.10294
G1 X120.123 Y121.904 E15.11525
G1 X120.281 Y122.024 E15.12713
G1 X120.375 Y122.155 E15.13678
G1 X120.488 Y122.385 E15.15212
G1 X120.488 Y122.71 E15.17158
G1 X120.978 Y122.587 E15.20182
G1 X121.474 Y122.71 E15.23242
G1 X121.482 Y122.39 E15.25158
G1 X121.557 Y122.179 E15.26499
G1 X121.689 Y122.011 E15.27778
G1 X121.911 Y121.888 E15.29297
G1 X122.077 Y121.837 E15.30337
G1 X124.941 Y121.837 E15.47483
G1 X125.173 Y121.883 E15.48899
G1 X125.356 Y122.002 E15.50206
G1 X125.516 Y122.215 E15.51801
G1 X125.585 Y122.518 E15.53661
G1 X125.583 Y124.376 E15.64785
G0 F1080 X125.582 Y125.342
G0 X125.509 Y125.584
G0 X125.318 Y125.792
G1 F600 E14.64785
G1 F600 Z0.96
G0 F3600 X133.684 Y146.548 Z0.96
G1 F600 Z0.36
G1 F600 E15.64785
G1 F1200 X133.877 Y146.412 E15.66199
G1 X134.035 Y146.255 E15.67532
G1 X134.169 Y146.063 E15.68934
G1 X134.272 Y145.843 E15.70388
G1 X134.325 Y145.641 E15.71638
G1 X134.35 Y145.365 E15.73297
G1 X134.351 Y126.464 E16.86454
G1 F987.7 X134.265 Y125.47 E16.93712
G1 F843.6 X134.268 Y104.643 E18.7108
G1 F842.1 X134.24 Y104.373 E18.73396
G1 F833.3 X134.187 Y104.185 E18.7508
G1 F826.2 X134.09 Y103.982 E18.77036
G1 F824.7 X133.966 Y103.802 E18.7894
G1 F829 X133.82 Y103.656 E18.80729
G1 F833.3 X133.641 Y103.528 E18.82626
G1 F839.2 X133.436 Y103.43 E18.84572
G1 F842.1 X133.247 Y103.378 E18.86244
G1 F848.1 X132.975 Y103.354 E18.88557
G1 F845.1 X130.022 Y103.356 E19.13661
G1 F987.7 X129.587 Y103.271 E19.16886
G1 F1200 X121.007 Y103.27 E19.68252
G1 F993.8 X119.845 Y103.353 E19.76674
G1 F848.1 X117.004 Y103.354 E20.00741
G1 F843.6 X116.753 Y103.38 E20.0289
G1 F833.3 X116.565 Y103.433 E20.04574
G1 F826.2 X116.361 Y103.531 E20.06542
G1 F824.7 X116.18 Y103.657 E20.08463
G1 F827.6 X116.033 Y103.801 E20.1025
G1 F831.9 X115.906 Y103.98 E20.12145
G1 F837.7 X115.809 Y104.184 E20.14082
G1 F842.1 X115.757 Y104.37 E20.1573
G1 F846.6 X115.732 Y104.649 E20.18107
G1 F843.6 X115.735 Y110.147 E20.64929
G1 F987.7 X115.649 Y110.581 E20.68148
G1 F1200 X115.65 Y113.716 E20.86916
G1 F995.9 X115.732 Y114.838 E20.95032
G1 F843.6 X115.735 Y117.791 E21.20181
G1 F987.7 X115.649 Y118.225 E21.23399
G1 F1200 X115.65 Y121.36 E21.42168
G1 F995.9 X115.732 Y122.482 E21.50284
G1 F843.6 X115.735 Y125.434 E21.75424
G1 F987.7 X115.649 Y125.868 E21.78642
G1 F1200 X115.65 Y145.373 E22.95415
G1 X115.674 Y145.641 E22.97026
G1 X115.727 Y145.843 E22.98276
G1 X115.83 Y146.063 E22.9973
G1 X115.964 Y146.255 E23.01132
G1 X116.122 Y146.412 E23.02466
G1 X116.315 Y146.548 E23.03879
G1 X116.533 Y146.649 E23.05318
G1 X116.737 Y146.704 E23.06582
G1 X117.013 Y146.729 E23.08242
G1 X132.214 Y146.729 E23.99247
G0 F1080 X132.986 Y146.729
G0 X133.262 Y146.704
G0 X133.466 Y146.65
G0 X133.684 Y146.548
G1 F600 E22.99247
G1 F600 Z0.96
G0 F3600 X124.876 Y140.661 Z0.96
G1 F600 Z0.36
G1 F600 E23.99247
G1 F1200 X124.382 Y140.611 E24.0222
G1 X123.904 Y140.486 E24.05178
G1 X123.474 Y140.29 E24.08007
G1 X123.006 Y139.996 E24.11316
G1 X122.638 Y139.665 E24.14279
G1 X122.343 Y139.315 E24.17019
G1 X122.079 Y138.887 E24.2003
G1 X121.865 Y138.377 E24.23341
G1 X121.744 Y137.832 E24.26684
G1 X121.711 Y137.381 E24.29391
G1 X121.749 Y136.898 E24.32291
G1 X121.85 Y136.44 E24.35099
G1 X122.038 Y135.952 E24.3823
G1 X122.303 Y135.49 E24.41419
G1 X122.668 Y135.061 E24.44791
G1 X123.005 Y134.759 E24.475
G1 X123.412 Y134.499 E24.50391
G1 X123.907 Y134.268 E24.53662
G1 X124.378 Y134.149 E24.5657
G1 X124.961 Y134.093 E24.60076
G1 X125.388 Y134.111 E24.62635
G1 X125.855 Y134.201 E24.65482
G1 X126.387 Y134.395 E24.68873
G1 X126.744 Y134.592 E24.71314
G1 X127.141 Y134.884 E24.74264
G1 X127.531 Y135.276 E24.77575
G1 X127.804 Y135.664 E24.80415
G1 X128.054 Y136.153 E24.83703
G1 X128.21 Y136.672 E24.86947
G1 X128.279 Y137.159 E24.89892
G1 X128.273 Y137.675 E24.92981
G1 X128.21 Y138.089 E24.95488
G1 X128.069 Y138.553 E24.98392
G1 X127.832 Y139.054 E25.0171
G1 X127.513 Y139.496 E25.04973
G1 X127.214 Y139.808 E25.0756
G1 X126.831 Y140.107 E25.10469
G1 X126.357 Y140.378 E25.13738
G1 X126.339 Y140.385 E25.13854
G0 F1080 X125.816 Y140.564
G0 X125.422 Y140.64
G0 X124.876 Y140.661
G1 F600 E24.13854
G1 F600 Z0.96
G0 F3600 X129.7 Y125.737 Z0.96
G1 F600 Z0.36
G1 F600 E25.13854
G1 F1200 X129.589 Y125.564 E25.15084
G1 X129.513 Y125.322 E25.16603
G1 X129.511 Y119.471 E25.51632
G1 F1344.5 X129.554 Y118.74 E25.55544
G1 F1538.5 X129.556 Y111.358 E25.90016
G1 F1352.1 X129.511 Y110.913 E25.92393
G1 F1200 X129.511 Y104.647 E26.29906
G1 X129.568 Y104.389 E26.31488
G1 X129.813 Y104.125 E26.33644
G1 F987.7 X130.071 Y103.925 E26.36019
G1 F840.6 X133.115 Y103.921 E26.62034
G1 F842.1 X133.372 Y104.038 E26.64443
G1 F834.8 X133.542 Y104.205 E26.66493
G1 F830.4 X133.646 Y104.391 E26.68337
G1 F840.6 X133.701 Y104.62 E26.7035
G1 F845.1 X133.696 Y125.421 E28.47185
G1 F987.7 X133.273 Y125.862 E28.5163
G1 F1200 X132.938 Y125.945 E28.53696
G1 X130.341 Y125.945 E28.69244
G0 F1080 X130.087 Y125.945
G0 X129.89 Y125.884
G0 X129.7 Y125.737
G1 F600 E27.69244
G1 F600 Z0.96
G0 F3600 X120.102 Y124.196 Z0.96
;TYPE:WALL-OUTER
G1 F600 Z0.36
G1 F600 E28.69244
G1 F1118.9 X120.102 Y123.731 E28.7223
G1 F600 E27.7223
G1 F600 Z0.96
G0 F3600 X122.017 Y125.535 Z0.96
G1 F600 Z0.36
G1 F600 E28.7223
G1 F1200 X121.879 Y125.295 E28.73887
G1 F1176.5 X121.868 Y123.922 E28.82272
G1 F1165 X121.75 Y124.333 E28.84909
G1 F1182.3 X121.422 Y124.661 E28.87727
G1 F1194 X120.977 Y124.776 E28.90493
G1 F1185.2 X120.534 Y124.661 E28.93267
G1 F1156.6 X120.101 Y124.247 E28.96988
G1 F1170.7 X120.087 Y125.328 E29.03622
G1 F1200 X120.014 Y125.458 E29.04515
G1 X119.847 Y125.542 E29.05634
G1 X116.959 Y125.545 E29.22924
G1 X116.782 Y125.301 E29.24728
G1 X116.78 Y122.482 E29.41605
G1 X116.881 Y122.308 E29.4281
G1 X117.028 Y122.239 E29.43782
G1 F1170.7 X118.375 Y122.226 E29.52048
G1 F1156.6 X117.982 Y122.112 E29.5459
G1 F1179.4 X117.569 Y121.697 E29.58156
G1 F1194 X117.567 Y121.141 E29.61502
G1 F1200 X117.69 Y120.86 E29.63338
G1 X118.074 Y120.476 E29.66589
G1 X118.785 Y120.476 E29.70846
G1 X119.201 Y120.891 E29.74364
G1 X119.32 Y121.344 E29.77168
G1 X119.203 Y121.784 E29.79894
G1 F1185.2 X118.875 Y122.112 E29.82706
G1 F1156.6 X118.483 Y122.226 E29.85241
G1 F1170.7 X119.873 Y122.238 E29.93771
G1 F1200 X119.991 Y122.299 E29.94567
G1 X120.085 Y122.48 E29.95788
G1 F1197 X120.089 Y123.336 E30.00925
G1 F1173.6 X120.101 Y123.697 E30.03136
G1 F1170.7 X120.207 Y123.434 E30.04876
G1 F1191.1 X120.532 Y123.111 E30.0764
G1 F1197 X120.979 Y122.996 E30.1041
G1 F1194 X121.422 Y123.111 E30.13164
G1 F1176.5 X121.751 Y123.44 E30.16005
G1 F1153.8 X121.865 Y123.832 E30.18547
G1 F1167.9 X121.876 Y123.335 E30.21605
G1 F1200 X121.878 Y122.374 E30.27358
G1 X122.097 Y122.239 E30.28899
G1 X125.046 Y122.237 E30.46554
G1 X125.185 Y122.464 E30.48147
G1 X125.184 Y125.309 E30.6518
G1 X125.096 Y125.459 E30.66221
G1 X124.929 Y125.534 E30.67317
G1 X123.517 Y125.535 E30.7577
G0 F1080 X122.017 Y125.535
G0 F3600 X121.879 Y125.295
G0 X121.868 Y123.922
G0 X121.75 Y124.333
G0 X121.422 Y124.661
G0 X120.977 Y124.776
G0 X120.534 Y124.661
G0 X120.101 Y124.247
G0 X120.089 Y125.193
G1 F600 E29.7577
G1 F600 Z0.96
G0 F3600 X118.483 Y122.226 Z0.96
G1 F600 Z0.36
G1 F600 E30.7577
G1 F1142.9 X118.375 Y122.226 E30.76449
G1 F600 E29.76449
G1 F600 Z0.96
G0 F3600 X118.533 Y120.071 Z0.96
;TYPE:WALL-INNER
G1 F600 Z0.36
G1 F600 E30.76449
G1 F1153.8 X118.272 Y120.065 E30.78075
G1 F600 E29.78075
G1 F600 Z0.96
G0 F3600 X118.376 Y117.907 Z0.96
;TYPE:WALL-OUTER
G1 F600 Z0.36
G1 F600 E30.78075
G1 F1176.5 X118.482 Y117.907 E30.78722
G0 F3600 X116.956 Y117.902
G1 F1194 X116.782 Y117.658 E30.80525
G1 F1200 X116.78 Y114.838 E30.97408
G1 X116.881 Y114.664 E30.98613
G1 F1185.2 X117.02 Y114.592 E30.99561
G1 F1153.8 X118.375 Y114.582 E31.07998
G1 F1167.9 X117.944 Y114.458 E31.10757
G1 F1200 X117.823 Y114.365 E31.11671
G1 X117.573 Y113.938 E31.14633
G1 X117.566 Y113.339 E31.18219
G1 X117.992 Y112.918 E31.21805
G1 X118.435 Y112.804 E31.24544
G1 X118.865 Y112.918 E31.27207
G1 X119.203 Y113.25 E31.30043
G1 X119.319 Y113.686 E31.32745
G1 X119.204 Y114.139 E31.35543
G1 F1197 X118.874 Y114.469 E31.38344
G1 F1165 X118.483 Y114.582 E31.40853
G1 F1153.8 X119.901 Y114.594 E31.49682
G1 F1185.2 X120.022 Y114.699 E31.50654
G1 F1200 X120.088 Y114.874 E31.51773
G1 X120.086 Y117.694 E31.68656
